Obsidian/places/16/folder-recent.svg

<svg height="16" width="16" xmlns="http://www.w3.org/2000/svg" xmlns:xlink="http://www.w3.org/1999/xlink"><linearGradient id="a" gradientTransform="matrix(.89189031 0 0 .94046961 3.14398 5.346537)" gradientUnits="userSpaceOnUse" x1="11.350123" x2="11.350123" y1=".666966" y2="8.172179"><stop offset="0" stop-color="#fff"/><stop offset=".0097359" stop-color="#fff" stop-opacity=".235294"/><stop offset=".99001008" stop-color="#fff" stop-opacity=".156863"/><stop offset="1" stop-color="#fff" stop-opacity=".392157"/></linearGradient><linearGradient id="b" gradientTransform="matrix(.38156409 0 0 .32896952 -18.24159 .282167)" gradientUnits="userSpaceOnUse" x1="76.041" x2="76.041" y1="49.372032" y2="35.430561"><stop offset="0" stop-color="#0a0a0a" stop-opacity=".498"/><stop offset="1" stop-color="#0a0a0a" stop-opacity="0"/></linearGradient><linearGradient id="c" gradientTransform="matrix(.3101469 0 0 .30591044 -15.362929 .469432)" gradientUnits="userSpaceOnUse" x1="84.30883" x2="84.30883" y1="16.110577" y2="42.923553"><stop offset="0" stop-color="#55a7f3"/><stop offset="1" stop-color="#1374cf"/></linearGradient><linearGradient id="d" gradientTransform="matrix(.31070043 0 0 .27489387 20.17717 -.103163)" gradientUnits="userSpaceOnUse" x1="-51.786404" x2="-51.786404" y1="53.514328" y2="2.061275"><stop offset="0" stop-opacity=".321739"/><stop offset="1" stop-opacity=".278261"/></linearGradient><linearGradient id="e" gradientTransform="matrix(.33333327 0 0 .32971018 -17.44063 -.647843)" gradientUnits="userSpaceOnUse" x1="62.988873" x2="62.988873" y1="11.645091" y2="15.385052"><stop offset="0" stop-color="#cecece"/><stop offset="1" stop-color="#c4c4c4"/></linearGradient><path d="m2.02332 1.976667v1h-1v4h14v-4h-7v-1z" fill="url(#e)"/><path d="m15.52332 4v-1.273333c0-.1385-.1115-.25-.25-.25h-6.75v-.71875c0-.1385-.1115-.25-.25-.25h-6.5c-.1385 0-.25.1115-.25.25v.71875h-.75c-.1385 0-.25.1115-.25.25v1.273333" fill="none" opacity=".8" stroke="url(#d)"/><path d="m1.0557148 5c.7046415 0 13.3978932.0283083 13.9442852.0283083 0 .5541558-.02651 8.9668427-.05806 8.9668427-4.894128.015945-12.5168954-.012542-13.94194-.012542 0-1.045855.0557334-6.830279.0557334-8.9826z" fill="url(#c)"/><path d="m.08698 3.976647c.8053 0 15.31189.0341 15.93634.0341 0 .67729-.0303 10.95971-.0663 10.95971-5.5933.02-14.30504-.0148-15.93366-.0148 0-1.2783.0636-8.34831.0636-10.97898z" fill="url(#b)" opacity=".4"/><path d="m1.57504 5.476667c.65431 0 12.44092.0251 12.94828.0251 0 .49259-.0246 7.97055-.0539 7.97055-4.54455.0142-11.62285-.0111-12.9461-.0111 0-.92965.0517-6.07138.0517-7.98455z" fill="none" opacity=".5" stroke="url(#a)" stroke-linecap="round"/><path d="m.55988 4.453367c.75732 0 14.39951.0316 14.98675.0316 0 .6186-.0285 10.00962-.0624 10.00962-5.26001.0178-13.45265-.014-14.98423-.014 0-1.16748.0599-7.62459.0599-10.02721z" fill="none" opacity=".3" stroke="#000" stroke-linecap="round" stroke-linejoin="round"/><path d="m8.072266 5.429014c-2.0544361 0-3.7198861 1.665449-3.7198861 3.719883 0 2.054439 1.66545 3.719887 3.7198861 3.719887 2.054436 0 3.719886-1.665448 3.719886-3.719887 0-2.054434-1.66545-3.719883-3.719886-3.719883zm2.455251 2.829098-2.5274068 2.541428-2.1456274-1.594702c.5231085-.523108.350403-.334471.8735115-.857579l1.2645618 1.022225 1.7174297-1.791024z" fill="#00508c"/></svg>

<?xml version="1.0" encoding="UTF-8" standalone="no"?>
<svg
   xmlns:dc="http://purl.org/dc/elements/1.1/"
   xmlns:cc="http://creativecommons.org/ns#"
   xmlns:rdf="http://www.w3.org/1999/02/22-rdf-syntax-ns#"
   xmlns:svg="http://www.w3.org/2000/svg"
   xmlns="http://www.w3.org/2000/svg"
   xmlns:xlink="http://www.w3.org/1999/xlink"
   version="1.1"
   id="svg8860"
   height="16px"
   width="16px">
  <defs
     id="defs8862">
    <linearGradient
       y2="8.1721792"
       x2="11.350123"
       y1="0.66696572"
       x1="11.350123"
       gradientTransform="matrix(0.89189031,0,0,0.94046961,3.14398,5.346537)"
       gradientUnits="userSpaceOnUse"
       id="linearGradient10270-0"
       xlink:href="#linearGradient3454-2-5-0-3-8" />
    <linearGradient
       id="linearGradient3454-2-5-0-3-8">
      <stop
         id="stop3456-4-9-38-1-9"
         style="stop-color:#ffffff;stop-opacity:1"
         offset="0" />
      <stop
         id="stop3458-39-80-3-5-6"
         style="stop-color:#ffffff;stop-opacity:0.23529412"
         offset="0.0097359" />
      <stop
         id="stop3460-7-0-2-4-4"
         style="stop-color:#ffffff;stop-opacity:0.15686275"
         offset="0.99001008" />
      <stop
         id="stop3462-0-9-8-7-8"
         style="stop-color:#ffffff;stop-opacity:0.39215687"
         offset="1" />
    </linearGradient>
    <linearGradient
       y2="35.430561"
       x2="76.041"
       y1="49.372032"
       x1="76.041"
       gradientTransform="matrix(0.38156409,0,0,0.32896952,-18.24159,0.28216731)"
       gradientUnits="userSpaceOnUse"
       id="linearGradient10268-4"
       xlink:href="#linearGradient6129-963-697-142-998-580-273-44-2-2-2" />
    <linearGradient
       id="linearGradient6129-963-697-142-998-580-273-44-2-2-2">
      <stop
         offset="0"
         style="stop-color:#0a0a0a;stop-opacity:0.498"
         id="stop2661-01-6-2-4" />
      <stop
         offset="1"
         style="stop-color:#0a0a0a;stop-opacity:0"
         id="stop2663-64-5-5-3" />
    </linearGradient>
    <linearGradient
       y2="42.923553"
       x2="84.30883"
       y1="16.110577"
       x1="84.30883"
       gradientTransform="matrix(0.3101469,0,0,0.30591044,-15.362929,0.46943178)"
       gradientUnits="userSpaceOnUse"
       id="linearGradient10262-3"
       xlink:href="#linearGradient4632-0-6-4" />
    <linearGradient
       id="linearGradient4632-0-6-4-4">
      <stop
         id="stop4634-4-4-7-5"
         offset="0"
         style="stop-color:#aacb7d;stop-opacity:1;" />
      <stop
         id="stop4636-3-1-5-4"
         offset="1"
         style="stop-color:#709937;stop-opacity:1;" />
    </linearGradient>
    <linearGradient
       xlink:href="#linearGradient3104-8-8-97-4-6-11-5-5-4-4"
       id="linearGradient10473-4-0"
       gradientUnits="userSpaceOnUse"
       gradientTransform="matrix(0.31070043,0,0,0.27489387,20.17717,-0.10316268)"
       x1="-51.786404"
       y1="53.514328"
       x2="-51.786404"
       y2="2.0612748" />
    <linearGradient
       id="linearGradient3104-8-8-97-4-6-11-5-5-4-4">
      <stop
         id="stop3106-5-4-3-5-0-2-1-0-7-7"
         style="stop-color:#000000;stop-opacity:0.32173914"
         offset="0" />
      <stop
         id="stop3108-4-3-7-8-2-0-7-9-0-6"
         style="stop-color:#000000;stop-opacity:0.27826086"
         offset="1" />
    </linearGradient>
    <linearGradient
       id="linearGradient4346">
      <stop
         offset="0"
         style="stop-color:#cecece;stop-opacity:1"
         id="stop4348" />
      <stop
         offset="1"
         style="stop-color:#c4c4c4;stop-opacity:1"
         id="stop4350" />
    </linearGradient>
    <linearGradient
       xlink:href="#linearGradient4346"
       id="linearGradient8858"
       gradientUnits="userSpaceOnUse"
       gradientTransform="matrix(0.33333327,0,0,0.32971018,-17.44063,-0.64784268)"
       x1="62.988873"
       y1="11.645091"
       x2="62.988873"
       y2="15.385052" />
    <linearGradient
       xlink:href="#linearGradient4632-0-6-4"
       id="linearGradient5883"
       gradientUnits="userSpaceOnUse"
       gradientTransform="matrix(0.72580649,0,0,0.74516186,87.157262,-7.159588)"
       x1="-91"
       y1="43.999817"
       x2="-91"
       y2="119.05979" />
    <linearGradient
       id="linearGradient4632-0-6-4">
      <stop
         style="stop-color:#55a7f3;stop-opacity:1;"
         offset="0"
         id="stop4634-4-4-7" />
      <stop
         style="stop-color:#1374cf;stop-opacity:1;"
         offset="1"
         id="stop4636-3-1-5" />
    </linearGradient>
    <linearGradient
       xlink:href="#linearGradient9235"
       id="linearGradient5873"
       gradientUnits="userSpaceOnUse"
       gradientTransform="matrix(1.9348846,0,0,1.9211429,-138.39876,-32.205592)"
       x1="97.538795"
       y1="8.8103228"
       x2="97.538795"
       y2="44.260689" />
    <linearGradient
       id="linearGradient9235">
      <stop
         id="stop9237"
         style="stop-color:#ffffff;stop-opacity:1"
         offset="0" />
      <stop
         id="stop9239"
         style="stop-color:#ffffff;stop-opacity:0.23529412"
         offset="0.1088333" />
      <stop
         id="stop9241"
         style="stop-color:#ffffff;stop-opacity:0.15686275"
         offset="0.97909725" />
      <stop
         id="stop9243"
         style="stop-color:#ffffff;stop-opacity:0.39215687"
         offset="1" />
    </linearGradient>
    <linearGradient
       x1="19.875452"
       y1="10.389797"
       x2="19.875452"
       y2="45.60001"
       id="linearGradient3044"
       xlink:href="#linearGradient3242-967-12-570-862-307"
       gradientUnits="userSpaceOnUse"
       gradientTransform="matrix(0.3777784,0,0,0.36363827,-30.770088,5.4904183)" />
    <linearGradient
       id="linearGradient3242-967-12-570-862-307">
      <stop
         id="stop4498"
         style="stop-color:#f2f2f2;stop-opacity:1"
         offset="0" />
      <stop
         id="stop4502"
         style="stop-color:#dbdbdb;stop-opacity:1"
         offset="0.87426931" />
      <stop
         id="stop4504"
         style="stop-color:#999999;stop-opacity:1"
         offset="1" />
    </linearGradient>
    <linearGradient
       x1="28.103424"
       y1="45.000065"
       x2="28.103424"
       y2="14.038458"
       id="linearGradient3046"
       xlink:href="#linearGradient2490-495-150-777"
       gradientUnits="userSpaceOnUse"
       gradientTransform="matrix(0.3777784,0,0,0.40051559,-30.770088,3.8493873)" />
    <linearGradient
       id="linearGradient2490-495-150-777">
      <stop
         id="stop4108"
         style="stop-color:#787878;stop-opacity:1"
         offset="0" />
      <stop
         id="stop4110"
         style="stop-color:#b4b4b4;stop-opacity:1"
         offset="1" />
    </linearGradient>
    <linearGradient
       x1="25.57654"
       y1="15.000002"
       x2="25.57654"
       y2="44.00053"
       id="linearGradient3048"
       xlink:href="#linearGradient3333-314-917-262"
       gradientUnits="userSpaceOnUse"
       gradientTransform="matrix(0.34883708,0,0,0.35714285,-30.075483,5.1366073)" />
    <linearGradient
       id="linearGradient3333-314-917-262">
      <stop
         id="stop4102"
         style="stop-color:#ffffff;stop-opacity:1"
         offset="0" />
      <stop
         id="stop4104"
         style="stop-color:#ffffff;stop-opacity:0"
         offset="1" />
    </linearGradient>
    <linearGradient
       x1="23.928667"
       y1="30.773148"
       x2="23.928667"
       y2="45.530704"
       id="linearGradient3050"
       xlink:href="#linearGradient3495-841-851-719"
       gradientUnits="userSpaceOnUse"
       gradientTransform="matrix(0.37702708,0,0,0.38807768,-30.752005,4.3904473)" />
    <linearGradient
       id="linearGradient3495-841-851-719">
      <stop
         id="stop4120"
         style="stop-color:#1e1e1e;stop-opacity:1"
         offset="0" />
      <stop
         id="stop4122"
         style="stop-color:#1e1e1e;stop-opacity:0"
         offset="1" />
    </linearGradient>
    <linearGradient
       x1="23.903786"
       y1="35.75"
       x2="23.903786"
       y2="16.00676"
       id="linearGradient3052"
       xlink:href="#linearGradient3495-841-851-719"
       gradientUnits="userSpaceOnUse"
       gradientTransform="matrix(0.37702708,0,0,0.38807768,-30.752005,4.8173323)" />
  </defs>
  <metadata
     id="metadata8865">
    <rdf:RDF>
      <cc:Work
         rdf:about="">
        <dc:format>image/svg+xml</dc:format>
        <dc:type
           rdf:resource="http://purl.org/dc/dcmitype/StillImage" />
        <dc:title></dc:title>
      </cc:Work>
    </rdf:RDF>
  </metadata>
  <g
     id="layer1">
    <path
       id="rect4170-0"
       d="m 2.02332,1.976667 0,1 -1,0 0,4 14,0 0,-4 -7,0 0,-1 -6,0 z"
       style="color:#000000;fill:url(#linearGradient8858);fill-opacity:1;fill-rule:nonzero;stroke:none;stroke-width:0.99992168;marker:none;visibility:visible;display:inline;overflow:visible;enable-background:accumulate" />
    <path
       id="rect4170"
       d="M 15.52332,4 V 2.726667 c 0,-0.1385 -0.1115,-0.25 -0.25,-0.25 h -6.75 v -0.71875 c 0,-0.1385 -0.1115,-0.25 -0.25,-0.25 h -6.5 c -0.1385,0 -0.25,0.1115 -0.25,0.25 v 0.71875 h -0.75 c -0.1385,0 -0.25,0.1115 -0.25,0.25 V 4"
       style="color:#000000;display:inline;overflow:visible;visibility:visible;opacity:0.8;fill:none;stroke:url(#linearGradient10473-4-0);stroke-width:1;stroke-linecap:butt;stroke-linejoin:miter;stroke-miterlimit:4;stroke-dasharray:none;stroke-dashoffset:0;stroke-opacity:1;marker:none;enable-background:accumulate" />
    <path
       style="color:#000000;fill:url(#linearGradient10262-3);fill-opacity:1.0;fill-rule:nonzero;stroke:none;stroke-width:1;marker:none;visibility:visible;display:inline;overflow:visible;enable-background:accumulate"
       id="rect3086"
       d="M 1.0557148,5 C 1.7603563,5 14.453608,5.0283083 15,5.0283083 15,5.5824641 14.97349,13.995151 14.94194,13.995151 10.047812,14.011096 2.4250446,13.982609 1,13.982609 1,12.936754 1.0557334,7.15233 1.0557334,5.000009 z" />
    <path
       style="color:#000000;display:inline;overflow:visible;visibility:visible;opacity:0.4;fill:url(#linearGradient10268-4);fill-opacity:1;fill-rule:nonzero;stroke:none;stroke-width:1;marker:none;enable-background:accumulate"
       id="rect3086-1"
       d="m 0.08698,3.976647 c 0.8053,0 15.31189,0.0341 15.93634,0.0341 0,0.67729 -0.0303,10.95971 -0.0663,10.95971 -5.5933,0.02 -14.30504,-0.0148 -15.93366,-0.0148 0,-1.2783 0.0636,-8.34831 0.0636,-10.97898 z" />
    <path
       style="opacity:0.5;color:#000000;fill:none;stroke:url(#linearGradient10270-0);stroke-width:1.00000012;stroke-linecap:round;stroke-linejoin:miter;stroke-miterlimit:4;stroke-opacity:1;stroke-dasharray:none;stroke-dashoffset:0;marker:none;visibility:visible;display:inline;overflow:visible;enable-background:accumulate"
       id="rect3086-9"
       d="m 1.57504,5.476667 c 0.65431,0 12.44092,0.0251 12.94828,0.0251 0,0.49259 -0.0246,7.97055 -0.0539,7.97055 -4.54455,0.0142 -11.62285,-0.0111 -12.9461,-0.0111 0,-0.92965 0.0517,-6.07138 0.0517,-7.98455 z" />
    <path
       style="opacity:0.3;color:#000000;fill:none;stroke:#000000;stroke-width:1;stroke-linecap:round;stroke-linejoin:round;stroke-miterlimit:4;stroke-opacity:1;stroke-dasharray:none;stroke-dashoffset:0;marker:none;visibility:visible;display:inline;overflow:visible;enable-background:accumulate"
       id="rect3086-0"
       d="m 0.55988,4.453367 c 0.75732,0 14.39951,0.0316 14.98675,0.0316 0,0.6186 -0.0285,10.00962 -0.0624,10.00962 -5.26001,0.0178 -13.45265,-0.014 -14.98423,-0.014 0,-1.16748 0.0599,-7.62459 0.0599,-10.02721 z" />
    <path
       style="fill:#00508c;fill-opacity:1;stroke:none"
       d="m 8.072266,5.429014 c -2.0544361,0 -3.7198861,1.665449 -3.7198861,3.719883 0,2.054439 1.66545,3.719887 3.7198861,3.719887 2.054436,0 3.719886,-1.665448 3.719886,-3.719887 0,-2.054434 -1.66545,-3.719883 -3.719886,-3.719883 z M 10.527517,8.258112 8.0001102,10.79954 5.8544828,9.204838 C 6.3775913,8.68173 6.2048858,8.870367 6.7279943,8.347259 L 7.9925561,9.369484 9.7099858,7.57846 Z"
       id="path4042" />
  </g>
</svg>
